X:11
T:Year of Jubilo (Bampton) (Binghamton)
M:2/4
L:1/8
S:Binghamton MM
O:England; Oxfordshire; Bampton.
R:Jig
P:A(AB)4
Q:100
K:D
P:A
F/E/ | DF FA | Af f/e/d/B/ | AF/A/ dF | E3 F/E/ |
DF FA | Af f/e/d/B/ | Ad e>c | d3 :|
P:B
A | B>A Bc | d>e dc | AF/A/ dF | E3 F/E/ |
DF FA | Af f/e/d/B/ | Ad e>c | d3 :|


